X:1
T:The Schiltron of Bannockburn
C:David M. Gardner
M:C
K:Edorian
L:1/8
EBeE dEAB|dcBA GEFG|EBeE dEAB|defd e/e/e e2|!
EBeE dEAB|dcBA GEFG|EDB,G, A,B,EG| FEDF E/E/E EF ||!
GFGA BE E/E/E|FEDF dD D/D/D|GFGA BE E/E/E|FDA,D E/E/E EF|!
GFGA BE E/E/E|FDAD dDAD|GFGA Bege|fedf e/e/e e2|]
T:Joanne Jenkins of Live Oak Reel
K:Emin
L:1/8
M:C
[|:BEEB EEBE|ABcd cBAc|BEEB EEBE|eged edBd|!
BEEB EEBE|ABcd cBAc|BAGE DB,DF|GEDF E/E/E E2:|]!
[|:GFGA BE E/E/E|dE^cE dE E/E/E|GFGA BE E/E/E|AFdB AFDF|!
GFGA BE E/E/E|dE^cE dE E/E/E|edBA GFEG|FDAF E/E/E E2:|]
T:James Gardner of Peterhead Strathspey
L:1/8
M:C
K:D
A[|:G>F E>F D>E F<D| B>A B<d A2 d>B| A<F F>E D>E F<D| G<B A>F E2 A>G|!
G>F E>F D>E F<D|  B>A B<d A2 f>e| d<B A>F G<B A<F| E4 D2:|]!
A,>C E<F E2 F>E| D>F A<B A2 F<A| B<d A>F G<B A<F| E6 C>B,|!
A,>C E<F E2 F>E| D>F A<B A2 F<A| B<d A>F G<B A<F|E4 D2:|]
T:Eliza Adalaide Gardner's Hornpipe
M:C
L:1/8
K:D
[|:d2fd Ad Fd| GFGB AFDF|G2 BG FGAF|BAGF EABc|!
d2 fd Ad Fd| GFGB AFED|GBdg ecAg|f2d2d4:|]!
[|:cded ceAg|fddc d2 d=c|BdGd BdGe| cAA^G A2 A=G|!
FAdF GBeG|Adfd g2 ag|fafd ceac|d2d2d4:|]
T: Devon Montgomery Gardner's Jig
M: 6/8
L:1/8
K:C
GAB BAB| BAB dBA| GAB BAB |dBG A2 B| GAB BAB | BAB dBd| gdB BAB | AGA G3:|!
GAB geg| edg edB| deg edg | edB A2 B| GAB geg | edg edB | gdB BAB| AGA G3:|!
T:The Postrider's March
C:David M. Gardner
L:1/8
M:C
K:A
[|:e>d|c2 c>B A>B c<A|d>c d<f e2 A>B|c2 c<e f>e c<A|c2B2B2e>d|!
c2 c>B A>B c<A|d>c d<f e2 a>f|e2 a>f e<c A>c|B2 A2 A2:|]!
[|:e2|a2 a>f e<c A>c| d>c d<f e2 a>f| e>A A/A/A e>A c<a| e>A c<e B2 a>f|!
e>A A/A/A e>A c<e| f<a d<f e2 a>f|e<a c<a e<a c<A| B2 A2 A2:|]!
[|:e>c|A/A/A A>B c>B c<e|f>e d<f e2 c>B|A/A/A A>B c<e c>A| c2B2B2e>c|!
A/A/A A>B c>B c<e|f>e d<a e2 a>f|e<a c<a e<f c<A|B2 A2 A2:|]
T:A Rabbit's Odyssey Lyrical Strathspey
L:1/8
M:C
K:D
A[|:G>F E>D F>E F<A| G>F E>D {A,}B,2 D<B,|A,>D F>A d>A F<A|B>A F<D E3 A|!
G>F E>D F>E F<A| G>F E>D {A,}B,2 D<B,|A,>D F<A G>F E<D| E>D F<E D3:|]!
AB/c/[|:d>A F<A B>A B<d| A<d F>D E2 AB/c/|d>A F<A B>A B<d|F<A d>F E2 D/E/F|!
G>F G<B A>F DF|G>F E>D {A,}B,2 D<B,| A,>D F>A d>A F<D |E>D F<E D3:|]
T:A Richt Guid Hogmannay
K:D
L:1/8
M:C
d<e[|:f>d A<d B>A G<B|A<F D<F E2 d>e|f<d A>d B>A G<B|A<d c>e d2:|]!
f>g|a<f d>A B>d g<b|a<f d>f e2 f>g|a<f d>A B>d g<b|a<f e>f d2f>g|!
|a<f d>A B>d g<b|a<f d>f e2 f>g|(3afd (3Adf (3gba (3gfe|f<d A>c d4|]
T:Colonel Thomas Ballard's Hornpipe
K:Eb
M:C
L:1/8
B,[|:EGBG AGFD| EGeG AcBA|GB,G,B, FAGD|EB,G,B, CFAc|!
BGEG AcBA|GBeG AcBA|GBGE FAFD|E2E2E2:|]!
[|:eBGE dAFD|EGBe cAFA|BGB,G AFDF|GBGE DFBd|!
eBGE dAFD|EGBe cAFA|GBGE FAFD|EGFD E2:|]
T:Lament for David M. Gardner Sr.
M:3/4
L:1/8
K:D
|:A,2 | [A,4D4] E<A | [B,4F4] D2 | [A,4E4] D<B, | [A,4E4]A,2  | [A,4D4]  E<A |[B,4F4]  D2 | [A,4E4] F<E | [A,4D4]:|!
|: [F4A4]  d<F |[F4B4]   d2  | [E4B4]    A<F | [A,4E4] A,2 | [A,4D4] E<A | [B,4F4] D2 | [A,4E4] E<F | [A,6E6]:|
T:Amang the Greenbriar
K:D
L:1/8
M:6/8
A[|:Add B2A| FED E2D|DFF Add|fdf ecA|Add B2A|FED E2D|DFA dfd|ecA d2:|]!
f[|:faa f2e|fdd dAF|DFA dfd|ecA Ace|faa f2e|fdd def|gec Ace|fdd d2:|]
T:Jennifer Dubh
K:A minor
M:C
L:1/8
AB[|:c3 A cBAG|EGAB cAdB|c3 A cBAG|EDEG A2 AB|!
c3 A cBAG|AGAB cAdB|cBAG EDCE|DB,GB, CA, A,2:|]!
EA, A,/A,/A, EA,FA,|EA, A,/A,/A, DB,GD| EA, A,/A,/A, EA,FA,| EDCB, A,CDF|!
EA, A,/A,/A, EA,FA,|EA, A,/A,/A, DB,GB,|CEGc ABcA|cABG A2A2:|]
T:Colyn Fischer's Fiddle (Air)
K:G
M:3/4
L:1/8
ed[|:B3 A GD|E3 G Bd|g3 f ed|B3 d BA|G3 D BA|B3 e ge| d3 A GF| G4:|]!
Bd[|:g3 b ag|e4 dc|B3 A GD|E4 Bd|g3 b af| e2 d/e/f|!
gd cB AF|G3 B AF| E3D EG| D4 B,G,|A,3 G, A,B,| G,6:|]!
T:Heather's Hornpipe
K:F
M:C
L:1/8
cB[|:ABcA F2A2|GFED C2F2|DEFD EFGE|FGAF G2 cB|!
ABcA FEFA|GFED C2F2|DEFD EFGE|F2F2F2:|]!
F2[|:GECE GdcB|AGFE FAcA|BdBG AcAF|EFGE C=B,CD|!
EB,A,B, EB,A,B,|FA,G,A, FA,G,A,|EGcG ecGc|f2f2f2:|]

